svg/color/ciotx.svg

<?xml version="1.0" encoding="UTF-8" ?>
<!DOCTYPE svg PUBLIC "-//W3C//DTD SVG 1.1//EN" "http://www.w3.org/Graphics/SVG/1.1/DTD/svg11.dtd">
<svg width="246pt" height="250pt" viewBox="0 0 246 250" version="1.1" xmlns="http://www.w3.org/2000/svg">
<g id="#fefefeff">
<path fill="#fefefe" opacity="1.00" d=" M 0.00 0.00 L 246.00 0.00 L 246.00 250.00 L 0.00 250.00 L 0.00 0.00 M 107.17 11.01 C 83.31 12.69 61.61 24.48 43.23 39.14 C 39.30 39.44 36.31 43.73 35.12 47.17 C 33.97 48.43 32.66 49.66 32.05 51.30 C 30.61 50.47 28.09 52.51 29.32 54.05 C 17.44 69.84 8.62 88.41 6.02 108.17 C 4.17 108.00 4.31 111.15 5.46 111.98 C 5.07 113.28 4.91 114.62 4.98 115.99 C 3.25 120.19 3.26 131.86 4.97 136.00 C 4.91 137.37 5.07 138.71 5.46 140.02 C 4.32 140.84 4.17 143.98 6.00 143.83 C 7.74 163.17 16.21 181.83 28.28 196.95 C 27.11 198.50 29.61 200.51 31.05 199.71 C 31.46 200.90 32.26 201.91 33.09 202.85 C 34.73 207.19 40.49 211.75 44.18 213.86 C 45.07 214.73 46.05 215.51 47.13 216.12 C 45.96 217.72 48.55 220.00 50.02 218.70 C 72.93 237.04 103.93 245.01 133.03 241.54 C 133.85 242.68 136.99 242.83 136.83 240.99 C 155.86 239.75 174.87 232.16 189.76 220.49 C 191.10 221.49 193.93 219.78 192.88 218.09 C 196.11 216.91 198.33 214.15 200.77 211.86 C 204.37 211.92 207.04 207.95 207.85 204.80 C 224.34 187.76 235.28 164.51 236.99 140.83 C 238.83 140.99 238.69 137.85 237.54 137.03 C 238.33 129.78 238.33 122.21 237.55 114.97 C 238.69 114.15 238.83 111.00 236.98 111.17 C 231.80 59.69 187.30 15.71 135.83 11.01 C 135.98 9.16 132.84 9.32 132.02 10.46 C 125.13 9.23 117.87 9.98 110.97 10.46 C 110.15 9.31 107.00 9.17 107.17 11.01 Z" />
</g>
<g id="#10b2a5ff">
<path fill="#10b2a5" opacity="1.00" d=" M 107.17 11.01 C 107.00 9.17 110.15 9.31 110.97 10.46 C 109.79 11.06 108.47 11.21 107.17 11.01 Z" />
<path fill="#10b2a5" opacity="1.00" d=" M 132.02 10.46 C 132.84 9.32 135.98 9.16 135.83 11.01 C 134.53 11.21 133.20 11.06 132.02 10.46 Z" />
<path fill="#10b2a5" opacity="1.00" d=" M 35.12 47.17 C 36.31 43.73 39.30 39.44 43.23 39.14 C 40.59 41.89 37.86 44.54 35.12 47.17 Z" />
<path fill="#10b2a5" opacity="1.00" d=" M 29.32 54.05 C 28.09 52.51 30.61 50.47 32.05 51.30 C 31.81 52.75 30.47 53.41 29.32 54.05 Z" />
<path fill="#10b2a5" opacity="1.00" d=" M 127.31 61.32 C 131.72 59.92 135.05 64.73 138.77 66.23 C 153.52 73.88 167.40 83.06 182.05 90.91 C 184.50 92.50 188.65 93.41 186.01 97.99 C 185.91 118.26 186.20 138.54 185.87 158.80 C 176.72 164.44 167.23 169.62 157.93 174.98 C 138.56 165.03 119.84 153.04 100.86 142.18 C 110.48 137.24 119.76 131.53 128.87 125.79 C 128.87 114.99 129.55 104.10 128.72 93.35 C 120.11 87.68 110.77 83.26 102.03 77.81 C 101.55 74.96 105.29 74.36 107.00 73.01 C 114.02 69.54 120.33 64.82 127.31 61.32 Z" />
<path fill="#10b2a5" opacity="1.00" d=" M 93.95 76.20 C 97.80 76.94 91.59 87.45 97.06 88.95 C 101.61 91.30 105.99 93.98 110.44 96.54 C 115.71 97.94 119.18 92.98 123.90 91.81 C 124.09 101.92 124.08 112.04 123.91 122.15 C 118.59 120.51 114.13 116.91 108.91 115.05 C 103.79 114.75 100.40 120.84 95.09 120.05 C 93.91 115.48 98.01 106.15 91.08 104.84 C 90.77 115.58 91.23 126.33 90.93 137.07 C 81.25 133.46 72.62 126.34 63.20 121.67 C 61.85 117.64 67.48 116.76 69.79 114.83 C 76.38 111.24 83.58 108.83 89.96 104.85 C 85.96 97.85 73.96 96.72 69.04 91.04 C 75.50 84.32 85.86 81.20 93.95 76.20 Z" />
<path fill="#10b2a5" opacity="1.00" d=" M 5.46 111.98 C 4.31 111.15 4.17 108.00 6.02 108.17 C 6.19 109.47 6.05 110.80 5.46 111.98 Z" />
<path fill="#10b2a5" opacity="1.00" d=" M 236.98 111.17 C 238.83 111.00 238.69 114.15 237.55 114.97 C 236.94 113.79 236.80 112.46 236.98 111.17 Z" />
<path fill="#10b2a5" opacity="1.00" d=" M 4.97 136.00 C 3.26 131.86 3.25 120.19 4.98 115.99 C 5.03 122.66 5.00 129.32 4.97 136.00 Z" />
<path fill="#10b2a5" opacity="1.00" d=" M 67.30 135.34 C 67.96 135.23 69.27 135.00 69.93 134.89 C 70.03 144.95 70.56 155.10 68.83 165.08 C 60.03 160.74 50.33 155.85 43.03 150.00 C 49.66 144.00 59.56 140.69 67.30 135.34 Z" />
<path fill="#10b2a5" opacity="1.00" d=" M 236.99 140.83 C 236.79 139.53 236.94 138.20 237.54 137.03 C 238.69 137.85 238.83 140.99 236.99 140.83 Z" />
<path fill="#10b2a5" opacity="1.00" d=" M 5.46 140.02 C 6.06 141.19 6.22 142.53 6.00 143.83 C 4.17 143.98 4.32 140.84 5.46 140.02 Z" />
<path fill="#10b2a5" opacity="1.00" d=" M 89.10 150.06 C 95.85 153.40 102.15 157.56 108.70 161.23 C 111.80 162.41 120.78 162.76 117.40 168.35 C 109.46 175.27 97.76 175.93 89.10 181.93 C 87.20 172.02 87.22 159.98 89.10 150.06 Z" />
<path fill="#10b2a5" opacity="1.00" d=" M 129.09 164.85 C 138.31 169.38 147.97 174.18 155.92 180.62 C 147.02 185.47 138.64 191.86 129.08 195.12 C 128.90 185.03 128.92 174.94 129.09 164.85 Z" />
<path fill="#10b2a5" opacity="1.00" d=" M 28.28 196.95 C 29.46 197.58 30.82 198.24 31.05 199.71 C 29.61 200.51 27.11 198.50 28.28 196.95 Z" />
<path fill="#10b2a5" opacity="1.00" d=" M 33.09 202.85 C 37.35 205.93 41.00 209.66 44.18 213.86 C 40.49 211.75 34.73 207.19 33.09 202.85 Z" />
<path fill="#10b2a5" opacity="1.00" d=" M 200.77 211.86 C 203.07 209.45 205.46 207.13 207.85 204.80 C 207.04 207.95 204.37 211.92 200.77 211.86 Z" />
<path fill="#10b2a5" opacity="1.00" d=" M 47.13 216.12 C 48.34 216.67 49.31 217.58 50.02 218.70 C 48.55 220.00 45.96 217.72 47.13 216.12 Z" />
<path fill="#10b2a5" opacity="1.00" d=" M 189.76 220.49 C 190.32 219.19 191.61 218.54 192.88 218.09 C 193.93 219.78 191.10 221.49 189.76 220.49 Z" />
<path fill="#10b2a5" opacity="1.00" d=" M 133.03 241.54 C 134.20 240.94 135.53 240.79 136.83 240.99 C 136.99 242.83 133.85 242.68 133.03 241.54 Z" />
</g>
<g id="#16232aff">
<path fill="#16232a" opacity="1.00" d=" M 110.97 10.46 C 117.87 9.98 125.13 9.23 132.02 10.46 C 133.20 11.06 134.53 11.21 135.83 11.01 C 187.30 15.71 231.80 59.69 236.98 111.17 C 236.80 112.46 236.94 113.79 237.55 114.97 C 238.33 122.21 238.33 129.78 237.54 137.03 C 236.94 138.20 236.79 139.53 236.99 140.83 C 235.28 164.51 224.34 187.76 207.85 204.80 C 205.46 207.13 203.07 209.45 200.77 211.86 C 198.33 214.15 196.11 216.91 192.88 218.09 C 191.61 218.54 190.32 219.19 189.76 220.49 C 174.87 232.16 155.86 239.75 136.83 240.99 C 135.53 240.79 134.20 240.94 133.03 241.54 C 103.93 245.01 72.93 237.04 50.02 218.70 C 49.31 217.58 48.34 216.67 47.13 216.12 C 46.05 215.51 45.07 214.73 44.18 213.86 C 41.00 209.66 37.35 205.93 33.09 202.85 C 32.26 201.91 31.46 200.90 31.05 199.71 C 30.82 198.24 29.46 197.58 28.28 196.95 C 16.21 181.83 7.74 163.17 6.00 143.83 C 6.22 142.53 6.06 141.19 5.46 140.02 C 5.07 138.71 4.91 137.37 4.97 136.00 C 5.00 129.32 5.03 122.66 4.98 115.99 C 4.91 114.62 5.07 113.28 5.46 111.98 C 6.05 110.80 6.19 109.47 6.02 108.17 C 8.62 88.41 17.44 69.84 29.32 54.05 C 30.47 53.41 31.81 52.75 32.05 51.30 C 32.66 49.66 33.97 48.43 35.12 47.17 C 37.86 44.54 40.59 41.89 43.23 39.14 C 61.61 24.48 83.31 12.69 107.17 11.01 C 108.47 11.21 109.79 11.06 110.97 10.46 M 127.31 61.32 C 120.33 64.82 114.02 69.54 107.00 73.01 C 105.29 74.36 101.55 74.96 102.03 77.81 C 110.77 83.26 120.11 87.68 128.72 93.35 C 129.55 104.10 128.87 114.99 128.87 125.79 C 119.76 131.53 110.48 137.24 100.86 142.18 C 119.84 153.04 138.56 165.03 157.93 174.98 C 167.23 169.62 176.72 164.44 185.87 158.80 C 186.20 138.54 185.91 118.26 186.01 97.99 C 188.65 93.41 184.50 92.50 182.05 90.91 C 167.40 83.06 153.52 73.88 138.77 66.23 C 135.05 64.73 131.72 59.92 127.31 61.32 M 93.95 76.20 C 85.86 81.20 75.50 84.32 69.04 91.04 C 73.96 96.72 85.96 97.85 89.96 104.85 C 83.58 108.83 76.38 111.24 69.79 114.83 C 67.48 116.76 61.85 117.64 63.20 121.67 C 72.62 126.34 81.25 133.46 90.93 137.07 C 91.23 126.33 90.77 115.58 91.08 104.84 C 98.01 106.15 93.91 115.48 95.09 120.05 C 100.40 120.84 103.79 114.75 108.91 115.05 C 114.13 116.91 118.59 120.51 123.91 122.15 C 124.08 112.04 124.09 101.92 123.90 91.81 C 119.18 92.98 115.71 97.94 110.44 96.54 C 105.99 93.98 101.61 91.30 97.06 88.95 C 91.59 87.45 97.80 76.94 93.95 76.20 M 67.30 135.34 C 59.56 140.69 49.66 144.00 43.03 150.00 C 50.33 155.85 60.03 160.74 68.83 165.08 C 70.56 155.10 70.03 144.95 69.93 134.89 C 69.27 135.00 67.96 135.23 67.30 135.34 M 89.10 150.06 C 87.22 159.98 87.20 172.02 89.10 181.93 C 97.76 175.93 109.46 175.27 117.40 168.35 C 120.78 162.76 111.80 162.41 108.70 161.23 C 102.15 157.56 95.85 153.40 89.10 150.06 M 129.09 164.85 C 128.92 174.94 128.90 185.03 129.08 195.12 C 138.64 191.86 147.02 185.47 155.92 180.62 C 147.97 174.18 138.31 169.38 129.09 164.85 Z" />
</g>
</svg>

<?xml version="1.0" encoding="utf-8"?>
<!-- Generator: Adobe Illustrator 26.0.3, SVG Export Plug-In . SVG Version: 6.00 Build 0)  -->
<svg version="1.1" id="Layer_1" xmlns="http://www.w3.org/2000/svg" xmlns:xlink="http://www.w3.org/1999/xlink" x="0px" y="0px"
	 viewBox="0 0 246 250" style="enable-background:new 0 0 246 250;" xml:space="preserve">
<style type="text/css">
	.st0{fill:#10B2A5;}
	.st1{fill:#16232A;}
</style>
<g id="_x23_10b2a5ff">
	<path class="st0" d="M107.2,11c-0.2-1.8,3-1.7,3.8-0.6C109.8,11.1,108.5,11.2,107.2,11z"/>
	<path class="st0" d="M132,10.5c0.8-1.1,4-1.3,3.8,0.6C134.5,11.2,133.2,11.1,132,10.5z"/>
	<path class="st0" d="M35.1,47.2c1.2-3.4,4.2-7.7,8.1-8C40.6,41.9,37.9,44.5,35.1,47.2z"/>
	<path class="st0" d="M29.3,54c-1.2-1.5,1.3-3.6,2.7-2.8C31.8,52.8,30.5,53.4,29.3,54z"/>
	<path class="st0" d="M127.3,61.3c4.4-1.4,7.7,3.4,11.5,4.9c14.8,7.6,28.6,16.8,43.3,24.7c2.4,1.6,6.6,2.5,4,7.1
		c-0.1,20.3,0.2,40.5-0.1,60.8c-9.1,5.6-18.6,10.8-27.9,16.2c-19.4-9.9-38.1-21.9-57.1-32.8c9.6-4.9,18.9-10.6,28-16.4
		c0-10.8,0.7-21.7-0.1-32.4c-8.6-5.7-18-10.1-26.7-15.5c-0.5-2.8,3.3-3.4,5-4.8C114,69.5,120.3,64.8,127.3,61.3z"/>
	<path class="st0" d="M93.9,76.2c3.9,0.7-2.4,11.2,3.1,12.8c4.6,2.4,8.9,5,13.4,7.6c5.3,1.4,8.7-3.6,13.5-4.7
		c0.2,10.1,0.2,20.2,0,30.3c-5.3-1.6-9.8-5.2-15-7.1c-5.1-0.3-8.5,5.8-13.8,5c-1.2-4.6,2.9-13.9-4-15.2c-0.3,10.7,0.2,21.5-0.2,32.2
		c-9.7-3.6-18.3-10.7-27.7-15.4c-1.4-4,4.3-4.9,6.6-6.8c6.6-3.6,13.8-6,20.2-10c-4-7-16-8.1-20.9-13.8
		C75.5,84.3,85.9,81.2,93.9,76.2z"/>
	<path class="st0" d="M5.5,112c-1.2-0.8-1.3-4,0.6-3.8C6.2,109.5,6.1,110.8,5.5,112z"/>
	<path class="st0" d="M237,111.2c1.9-0.2,1.7,3,0.6,3.8C236.9,113.8,236.8,112.5,237,111.2z"/>
	<path class="st0" d="M5,136c-1.7-4.1-1.7-15.8,0-20C5,122.7,5,129.3,5,136z"/>
	<path class="st0" d="M67.3,135.3c0.7-0.1,2-0.3,2.6-0.4c0.1,10.1,0.6,20.2-1.1,30.2C60,160.7,50.3,155.9,43,150
		C49.7,144,59.6,140.7,67.3,135.3z"/>
	<path class="st0" d="M237,140.8c-0.2-1.3-0.1-2.6,0.5-3.8C238.7,137.9,238.8,141,237,140.8z"/>
	<path class="st0" d="M5.5,140c0.6,1.2,0.8,2.5,0.5,3.8C4.2,144,4.3,140.8,5.5,140z"/>
	<path class="st0" d="M89.1,150.1c6.8,3.3,13.1,7.5,19.6,11.2c3.1,1.2,12.1,1.5,8.7,7.1c-7.9,6.9-19.6,7.6-28.3,13.6
		C87.2,172,87.2,160,89.1,150.1z"/>
	<path class="st0" d="M129.1,164.9c9.2,4.5,18.9,9.3,26.8,15.8c-8.9,4.9-17.3,11.2-26.8,14.5C128.9,185,128.9,174.9,129.1,164.9z"/>
	<path class="st0" d="M28.3,196.9c1.2,0.6,2.5,1.3,2.8,2.8C29.6,200.5,27.1,198.5,28.3,196.9z"/>
	<path class="st0" d="M33.1,202.9c4.3,3.1,7.9,6.8,11.1,11C40.5,211.8,34.7,207.2,33.1,202.9z"/>
	<path class="st0" d="M200.8,211.9c2.3-2.4,4.7-4.7,7.1-7.1C207,207.9,204.4,211.9,200.8,211.9z"/>
	<path class="st0" d="M47.1,216.1c1.2,0.6,2.2,1.5,2.9,2.6C48.5,220,46,217.7,47.1,216.1z"/>
	<path class="st0" d="M189.8,220.5c0.6-1.3,1.9-2,3.1-2.4C193.9,219.8,191.1,221.5,189.8,220.5z"/>
	<path class="st0" d="M133,241.5c1.2-0.6,2.5-0.8,3.8-0.5C137,242.8,133.9,242.7,133,241.5z"/>
</g>
<g id="_x23_16232aff">
	<path class="st1" d="M111,10.5c6.9-0.5,14.2-1.2,21.1,0c1.2,0.6,2.5,0.8,3.8,0.6c51.5,4.7,96,48.7,101.1,100.2
		c-0.2,1.3,0,2.6,0.6,3.8c0.8,7.2,0.8,14.8,0,22.1c-0.6,1.2-0.8,2.5-0.5,3.8c-1.7,23.7-12.7,46.9-29.1,64c-2.4,2.3-4.8,4.6-7.1,7.1
		c-2.4,2.3-4.7,5.1-7.9,6.2c-1.3,0.4-2.6,1.1-3.1,2.4c-14.9,11.7-33.9,19.3-52.9,20.5c-1.3-0.2-2.6-0.1-3.8,0.5
		c-29.1,3.5-60.1-4.5-83-22.8c-0.7-1.1-1.7-2-2.9-2.6c-1.1-0.6-2.1-1.4-3-2.3c-3.2-4.2-6.8-7.9-11.1-11c-0.8-0.9-1.6-2-2-3.1
		c-0.2-1.5-1.6-2.1-2.8-2.8C16.2,181.8,7.7,163.2,6,143.8c0.2-1.3,0.1-2.6-0.5-3.8c-0.4-1.3-0.6-2.7-0.5-4c0-6.7,0.1-13.3,0-20
		c-0.1-1.4,0.1-2.7,0.5-4c0.6-1.2,0.7-2.5,0.6-3.8C8.6,88.4,17.4,69.8,29.3,54c1.1-0.6,2.5-1.3,2.7-2.8c0.6-1.6,1.9-2.9,3.1-4.1
		c2.7-2.6,5.5-5.3,8.1-8C61.6,24.5,83.3,12.7,107.2,11C108.5,11.2,109.8,11.1,111,10.5 M127.3,61.3c-7,3.5-13.3,8.2-20.3,11.7
		c-1.7,1.3-5.4,1.9-5,4.8c8.7,5.5,18.1,9.9,26.7,15.5c0.8,10.8,0.1,21.6,0.1,32.4c-9.1,5.7-18.4,11.5-28,16.4
		c19,10.9,37.7,22.9,57.1,32.8c9.3-5.4,18.8-10.5,27.9-16.2c0.3-20.3,0-40.5,0.1-60.8c2.6-4.6-1.5-5.5-4-7.1
		c-14.7-7.9-28.5-17-43.3-24.7C135.1,64.7,131.7,59.9,127.3,61.3 M93.9,76.2c-8.1,5-18.4,8.1-24.9,14.8C74,96.7,86,97.8,90,104.8
		c-6.4,4-13.6,6.4-20.2,10c-2.3,1.9-7.9,2.8-6.6,6.8c9.4,4.7,18,11.8,27.7,15.4c0.3-10.7-0.2-21.5,0.2-32.2c6.9,1.3,2.8,10.6,4,15.2
		c5.3,0.8,8.7-5.3,13.8-5c5.2,1.9,9.7,5.5,15,7.1c0.2-10.1,0.2-20.2,0-30.3c-4.7,1.2-8.2,6.1-13.5,4.7c-4.5-2.6-8.8-5.2-13.4-7.6
		C91.6,87.4,97.8,76.9,93.9,76.2 M67.3,135.3C59.6,140.7,49.7,144,43,150c7.3,5.9,17,10.7,25.8,15.1c1.7-10,1.2-20.1,1.1-30.2
		C69.3,135,68,135.2,67.3,135.3 M89.1,150.1c-1.9,9.9-1.9,22,0,31.9c8.7-6,20.4-6.7,28.3-13.6c3.4-5.6-5.6-5.9-8.7-7.1
		C102.2,157.6,95.8,153.4,89.1,150.1 M129.1,164.9c-0.2,10.1-0.2,20.2,0,30.3c9.6-3.3,17.9-9.6,26.8-14.5
		C148,174.2,138.3,169.4,129.1,164.9z"/>
</g>
</svg>
